X: 36660
T: Sharon Doro's
R: mazurka
M: 3/4
K: Dmajor
|:B/ (3BAG|F>^E F>G A>F|G>F G>B e>d|c>^B c>d c>=B|A^G A>B A>G|
F2 F>G (3AGF|G2 G>B e>d|c2 c>A (3ABc|d2 D3/2:|
|:A/ B/c/d/e/|f2 f>A g>f|e>^d e>d c>d|e>A e>g f>e|d>c d>B A>d|
f>^e f>a g>f|e>^d e>A c>d|e>^d e>A (3gfe|d2 D3/2:|

